common/src/main/resources/icons/plugins/resharper/TodoItems/ToDoItemsToolWindow.svg

<svg xmlns="http://www.w3.org/2000/svg" width="13" height="13" viewBox="0 0 24 24"><path fill="#AB7967" d="M17 17.5 12 15l-5 2.5V5H5v14h14V5h-2zm-5-5.08 2.25 1.35-.6-2.55 1.99-1.72L13 9.27l-1-2.41-1 2.41-2.64.23 1.99 1.72-.6 2.55zM5 3h14a2 2 0 0 1 2 2v14a2 2 0 0 1-2 2H5a2 2 0 0 1-2-2V5a2 2 0 0 1 2-2"/></svg>

<!--
  - The MIT License (MIT)
  -
  - Copyright (c) 2015-2022 Elior "Mallowigi" Boukhobza
  -
  - Permission is hereby granted, free of charge, to any person obtaining a copy
  - of this software and associated documentation files (the "Software"), to deal
  - in the Software without restriction, including without limitation the rights
  - to use, copy, modify, merge, publish, distribute, sublicense, and/or sell
  - copies of the Software, and to permit persons to whom the Software is
  - furnished to do so, subject to the following conditions:
  -
  - The above copyright notice and this permission notice shall be included in all
  - copies or substantial portions of the Software.
  -
  - THE SOFTWARE IS PROVIDED "AS IS", WITHOUT WARRANTY OF ANY KIND, EXPRESS OR
  - IMPLIED, INCLUDING BUT NOT LIMITED TO THE WARRANTIES OF MERCHANTABILITY,
  - FITNESS FOR A PARTICULAR PURPOSE AND NONINFRINGEMENT. IN NO EVENT SHALL THE
  - AUTHORS OR COPYRIGHT HOLDERS BE LIABLE FOR ANY CLAIM, DAMAGES OR OTHER
  - LIABILITY, WHETHER IN AN ACTION OF CONTRACT, TORT OR OTHERWISE, ARISING FROM,
  - OUT OF OR IN CONNECTION WITH THE SOFTWARE OR THE USE OR OTHER DEALINGS IN THE
  - SOFTWARE.
  -
  -
  -->


<svg xmlns="http://www.w3.org/2000/svg" version="1.1" width="13px" height="13px" viewBox="0 0 24 24">
  <path fill="#AB7967"
        d="M17,17.5L12,15L7,17.5V5H5V19H19V5H17V17.5M12,12.42L14.25,13.77L13.65,11.22L15.64,9.5L13,9.27L12,6.86L11,9.27L8.36,9.5L10.35,11.22L9.75,13.77L12,12.42M5,3H19A2,2 0 0,1 21,5V19A2,2 0 0,1 19,21H5A2,2 0 0,1 3,19V5A2,2 0 0,1 5,3Z" />
</svg>
